assets/icon-chat-bubble.svg

<svg
  class="icon icon-accordion icon-chat-bubble"

  focusable="false"
  xmlns="http://www.w3.org/2000/svg"


  viewBox="0 0 20 20"
>
  <path d="M5.80023 10.2433C5.80023 9.691 6.24795 9.24329 6.80023 9.24329C7.35252 9.24329 7.80023 9.691 7.80023 10.2433C7.80023 10.7956 7.35252 11.2433 6.80023 11.2433C6.24795 11.2433 5.80023 10.7956 5.80023 10.2433Z"/>
  <path d="M9.22974 10.2433C9.22974 9.691 9.67745 9.24329 10.2297 9.24329C10.782 9.24329 11.2297 9.691 11.2297 10.2433C11.2297 10.7956 10.782 11.2433 10.2297 11.2433C9.67745 11.2433 9.22974 10.7956 9.22974 10.2433Z"/>
  <path d="M12.6592 10.2433C12.6592 9.691 13.1069 9.24329 13.6592 9.24329C14.2115 9.24329 14.6592 9.691 14.6592 10.2433C14.6592 10.7956 14.2115 11.2433 13.6592 11.2433C13.1069 11.2433 12.6592 10.7956 12.6592 10.2433Z"/>
  <path d="M16.6445 17.2036C16.6418 17.2023 16.6392 17.2009 16.6365 17.1996C16.3947 17.0764 16.1302 16.9257 15.8701 16.7774C15.2251 16.4099 14.607 16.0576 14.4279 16.1795C13.2314 16.9937 11.7861 17.4696 10.2297 17.4696C6.10323 17.4696 2.75806 14.1244 2.75806 9.99791C2.75806 5.87142 6.10323 2.52625 10.2297 2.52625C14.3562 2.52625 17.7014 5.87142 17.7014 9.99791C17.7014 11.512 17.251 12.9209 16.477 14.0979C16.3445 14.2994 16.6705 14.9403 17.0113 15.6104C17.1583 15.8994 17.308 16.1938 17.4249 16.4607C17.4269 16.4653 17.4289 16.4697 17.4308 16.4742C17.6237 16.9172 17.7239 17.2824 17.5671 17.418C17.4394 17.5544 17.0791 17.4243 16.6445 17.2036ZM18.2593 18.14C17.8792 18.5115 17.4018 18.4853 17.2128 18.461C16.9786 18.4309 16.7562 18.3504 16.587 18.2799C16.2391 18.1348 15.8412 17.9114 15.506 17.7209C15.4611 17.6954 15.4172 17.6704 15.3743 17.6459C15.0837 17.4804 14.8356 17.3391 14.6299 17.2385C13.347 18.0196 11.8396 18.4696 10.2297 18.4696C5.55095 18.4696 1.75806 14.6767 1.75806 9.99791C1.75806 5.31914 5.55095 1.52625 10.2297 1.52625C14.9085 1.52625 18.7014 5.31914 18.7014 9.99791C18.7014 11.5821 18.2656 13.0672 17.5072 14.3369C17.5098 14.3432 17.5125 14.3497 17.5153 14.3564C17.6071 14.5755 17.7411 14.8392 17.8997 15.1513C17.927 15.2049 17.9549 15.2599 17.9835 15.3164C18.1621 15.6689 18.3719 16.0905 18.5003 16.4618C18.5631 16.6435 18.6314 16.8815 18.6427 17.1309C18.6529 17.3561 18.6228 17.7987 18.2593 18.14Z" fill-rule="evenodd"/>
</svg>

<svg xmlns="http://www.w3.org/2000/svg" class="icon icon-accordion icon-chat-bubble" viewBox="0 0 20 20"><path d="M5.8 10.243a1 1 0 1 1 2 0 1 1 0 0 1-2 0M9.23 10.243a1 1 0 1 1 2 0 1 1 0 0 1-2 0M12.66 10.243a1 1 0 1 1 2 0 1 1 0 0 1-2 0"/><path fill-rule="evenodd" d="m16.645 17.204-.008-.004a19 19 0 0 1-.767-.423c-.645-.367-1.263-.72-1.442-.598a7.472 7.472 0 1 1 2.05-2.082c-.134.202.192.843.533 1.513.147.29.297.584.414.85l.006.014c.193.443.293.808.136.944-.128.136-.488.006-.922-.214m1.614.936c-.38.372-.857.345-1.046.321a2.5 2.5 0 0 1-.626-.181 11 11 0 0 1-1.081-.56l-.132-.074c-.29-.166-.538-.307-.744-.408a8.472 8.472 0 1 1 2.877-2.902l.008.02c.092.22.226.483.385.795l.084.165c.178.353.388.774.516 1.146.063.181.131.42.143.669.01.225-.02.668-.384 1.009"/></svg>
